images/POLITICA_CALIDAD/ICONS/Icon Colaboradores.svg

<svg width="91" height="91" viewBox="0 0 91 91" fill="none" xmlns="http://www.w3.org/2000/svg">
<circle cx="45.4114" cy="45.4114" r="45.4114" fill="white"/>
<path d="M73.1722 15.3906C80.9506 22.7878 85.7994 33.2373 85.7994 44.82C85.7994 67.2466 67.6184 85.4275 45.1919 85.4275C22.7654 85.4275 4.58447 67.2466 4.58447 44.82C4.58447 30.9213 11.5665 18.6545 22.2171 11.333" stroke="url(#paint0_linear_103_16)" stroke-width="2" stroke-miterlimit="10"/>
<path d="M68.81 17.2968C72.0965 17.2968 74.7607 14.6326 74.7607 11.3461C74.7607 8.0597 72.0965 5.39551 68.81 5.39551C65.5236 5.39551 62.8594 8.0597 62.8594 11.3461C62.8594 14.6326 65.5236 17.2968 68.81 17.2968Z" stroke="url(#paint1_linear_103_16)" stroke-width="2" stroke-miterlimit="10"/>
<path d="M25 55.8422C25.2217 55.5925 25.4297 55.3293 25.6661 55.0942C27.9641 52.8095 30.266 50.5307 32.5689 48.2509C32.6695 48.1512 32.7837 48.0651 32.9429 47.9286C32.4165 47.4177 31.9214 46.9513 31.4418 46.4694C30.5853 45.6101 30.2718 44.5941 30.6391 43.4251C30.9184 42.5359 31.5219 41.9243 32.3999 41.5846C32.5064 41.543 32.6138 41.5043 32.7212 41.4647C32.021 39.5845 33.023 37.804 34.8962 37.3337C34.443 35.2958 35.6453 33.9449 37.202 33.5618C36.9412 32.4286 37.1161 31.3806 38.0058 30.5562C38.8798 29.7463 39.919 29.5711 41.1163 29.9437C41.0763 29.7337 41.0275 29.5663 41.0167 29.3979C40.9855 28.9228 40.9542 28.4457 40.9522 27.9696C40.9493 27.3 41.2462 27.0087 41.9338 27.0049C43.3792 26.9971 44.8246 27 46.269 27.0039C46.9068 27.0058 47.5455 27.001 48.1822 27.031C49.4704 27.092 50.574 27.5903 51.4969 28.4786C51.6571 28.6325 51.7723 28.7147 52.0272 28.6122C53.122 28.1738 54.1563 28.3267 55.0557 29.0844C55.9425 29.8324 56.2521 30.802 56.0226 31.937C56.007 32.0125 55.9982 32.089 55.9806 32.1964C56.8205 32.4006 57.509 32.8234 57.9671 33.5685C58.428 34.3185 58.4749 35.1216 58.2669 35.9857C59.1947 36.2044 59.9115 36.6892 60.3549 37.5311C60.7934 38.3623 60.7622 39.2119 60.476 39.9716C60.9858 40.3238 61.5191 40.5763 61.897 40.9731C63.0104 42.142 62.9879 43.8383 61.8189 45.0111C59.1654 47.6722 56.508 50.3313 53.7851 52.9218C51.8563 54.7574 49.4753 55.7232 46.8159 55.9757C46.4097 56.0144 46.186 56.2215 45.8735 56.5844C46.5181 56.7847 47.1021 57.0218 47.7095 57.1398C48.2262 57.2395 48.7702 57.2211 49.3014 57.2192C49.6374 57.2182 49.904 57.313 50.1394 57.5482C51.4891 58.8923 52.8466 60.2296 54.1963 61.5746C54.6094 61.9859 54.6417 62.4339 54.3037 62.7697C53.9746 63.0968 53.5 63.0639 53.0956 62.6652C51.8583 61.4459 50.6306 60.218 49.3864 59.0064C49.2653 58.8884 49.0553 58.7955 48.8874 58.7984C47.4996 58.8197 46.2036 58.5023 45.014 57.7959C44.7845 57.6595 44.6732 57.7427 44.5228 57.8927C42.9631 59.4487 41.3995 61.0018 39.835 62.552C39.707 62.6787 39.5733 62.8123 39.418 62.8955C39.1006 63.0658 38.7793 63.029 38.5214 62.7774C38.2655 62.5278 38.1972 62.2142 38.3759 61.892C38.4618 61.7372 38.5927 61.6027 38.7207 61.4759C40.9054 59.2987 43.0969 57.1282 45.2758 54.9442C45.5805 54.6394 45.9165 54.4884 46.3393 54.4623C49.071 54.291 51.3729 53.185 53.2988 51.2816C55.7228 48.8847 58.1487 46.4907 60.5532 44.0754C60.811 43.817 61.0161 43.4455 61.1001 43.0923C61.2329 42.5339 60.9116 42.0094 60.4096 41.7433C59.9106 41.4792 59.3119 41.5276 58.8792 41.9049C58.5374 42.203 58.2308 42.5388 57.8997 42.8484C57.5637 43.1639 57.2336 43.2248 56.9074 43.0497C56.4133 42.7845 56.3586 42.201 56.8059 41.7443C57.4143 41.125 58.0374 40.5202 58.6546 39.9096C58.9964 39.5719 59.1879 39.1752 59.1136 38.6904C59.0306 38.1485 58.723 37.7662 58.1995 37.5824C57.6546 37.3898 57.1662 37.5282 56.7609 37.9162C56.1525 38.4988 55.5626 39.1007 54.961 39.69C54.8419 39.807 54.7159 39.9251 54.5723 40.0103C54.2696 40.1883 53.8779 40.1244 53.6474 39.8651C53.4082 39.5961 53.3584 39.2874 53.5449 38.9729C53.6289 38.8307 53.75 38.7078 53.8682 38.5888C54.7129 37.7469 55.5626 36.9108 56.4064 36.068C56.8098 35.6655 56.925 35.1777 56.7502 34.6426C56.5842 34.1336 56.2062 33.8317 55.6788 33.7359C55.1768 33.645 54.7608 33.8308 54.4082 34.1801C53.5703 35.0103 52.7323 35.8406 51.8934 36.6689C51.7928 36.7686 51.6873 36.8683 51.5692 36.9457C51.2567 37.1498 50.8572 37.1073 50.6043 36.8566C50.3494 36.6041 50.3044 36.2054 50.5115 35.8987C50.5974 35.7719 50.7088 35.6596 50.8191 35.5503C51.8856 34.4907 52.9521 33.4311 54.0225 32.3754C54.4395 31.9641 54.6514 31.4939 54.4737 30.9084C54.1836 29.9524 53.0497 29.6127 52.2753 30.2494C52.1259 30.3723 51.9911 30.5146 51.8534 30.651C50.3435 32.147 48.8346 33.643 47.3218 35.1371C47.2212 35.2368 47.0962 35.3123 46.9693 35.4081C47.7095 36.4444 47.8931 37.4963 47.3453 38.5926C46.7983 39.688 45.85 40.1931 44.6439 40.2367C44.5228 42.0723 43.304 43.2026 41.6505 43.2781C41.4796 43.7996 41.38 44.3405 41.1329 44.805C40.6749 45.6672 39.9082 46.1501 38.9189 46.2527C38.6669 46.2788 38.4658 46.2778 38.4423 46.6446C38.3114 48.6128 36.2381 49.864 34.404 49.0831C34.1325 48.9679 33.9996 49.0182 33.8141 49.2031C31.3891 51.6164 28.9563 54.023 26.5265 56.4315C26.2823 56.6734 26.0137 56.9415 25.6504 56.8089C25.4053 56.7189 25.2158 56.4799 25.002 56.3076C25 56.1518 25 55.997 25 55.8422ZM44.641 38.7629C44.6595 38.731 44.6771 38.6991 44.6957 38.6681C45.2533 38.6749 45.7446 38.3681 45.9721 37.8737C46.2153 37.3443 46.1157 36.7696 45.6576 36.3128C44.1185 34.7771 42.5754 33.2444 41.0216 31.7222C40.4425 31.1552 39.6113 31.1571 39.0625 31.6893C38.5107 32.2244 38.5038 33.077 39.0859 33.6614C40.6124 35.1923 42.1437 36.7183 43.6976 38.221C43.9495 38.4649 44.3236 38.5849 44.641 38.7629ZM45.894 34.2236C47.4039 32.7276 48.945 31.1997 50.4978 29.6621C49.7575 28.9247 48.8209 28.5512 47.7271 28.5512C46.1128 28.5502 44.4984 28.5502 42.884 28.5522C42.7698 28.5522 42.6545 28.5657 42.5451 28.5725C42.4162 29.755 43.2952 30.7294 44.5082 30.7575C45.224 30.7739 45.9409 30.7478 46.6558 30.7623C47.0855 30.771 47.3843 31.0584 47.4234 31.4445C47.4615 31.8316 47.2437 32.148 46.8521 32.2535C46.728 32.2873 46.5962 32.3019 46.4673 32.3028C45.601 32.3067 44.7347 32.3048 43.9603 32.3048C44.5775 32.9163 45.2543 33.5879 45.894 34.2236ZM37.9472 35.079C37.159 35.1081 36.7254 35.3664 36.4764 35.8977C36.2263 36.4309 36.3348 36.996 36.7967 37.4576C38.0702 38.731 39.3486 40.0006 40.6358 41.2605C41.2267 41.8391 42.0832 41.8469 42.6301 41.3069C43.1868 40.7583 43.1838 39.928 42.592 39.3339C41.3204 38.0585 40.0459 36.785 38.746 35.5377C38.4911 35.2958 38.1181 35.1748 37.9472 35.079ZM34.0641 40.1012C34.0543 40.6567 34.2438 40.9953 34.5407 41.2895C35.5437 42.2823 36.5379 43.2829 37.5546 44.2622C37.7509 44.4518 38.0155 44.6115 38.2773 44.686C38.8886 44.8592 39.4981 44.5718 39.8018 44.0319C40.1084 43.4861 40.0196 42.8581 39.5322 42.3675C38.5185 41.3485 37.493 40.3422 36.4715 39.3319C36.3894 39.2506 36.2986 39.1732 36.201 39.1113C35.7478 38.8239 35.2741 38.791 34.7975 39.0397C34.32 39.2884 34.0846 39.6977 34.0641 40.1012ZM36.9178 46.2333C36.8553 46.0949 36.7918 45.763 36.5945 45.554C35.8494 44.7644 35.0808 43.9941 34.2809 43.2577C33.7711 42.7884 32.9693 42.8562 32.4702 43.3313C31.9702 43.8074 31.8637 44.6018 32.3364 45.1166C33.0963 45.944 33.9029 46.7326 34.7321 47.4922C35.1355 47.8619 35.6648 47.8696 36.159 47.618C36.6502 47.3684 36.8992 46.9503 36.9178 46.2333Z" fill="url(#paint2_linear_103_16)"/>
<path d="M62.2594 50.5462C62.5338 50.6991 62.7516 50.7707 62.902 50.9119C63.5153 51.4877 64.1149 52.077 64.7048 52.676C65.0789 53.0553 65.0916 53.485 64.7761 53.8111C64.449 54.1497 64.0017 54.142 63.6022 53.7617C63.0026 53.1908 62.4176 52.6054 61.8287 52.0238C61.5679 51.7654 61.4322 51.4374 61.6236 51.1171C61.7583 50.8907 62.0298 50.7445 62.2594 50.5462Z" fill="url(#paint3_linear_103_16)"/>
<path d="M59.6029 49.4769C59.6107 49.0618 59.9692 48.7154 60.3842 48.7241C60.7964 48.7328 61.1519 49.1005 61.1431 49.5069C61.1333 49.9133 60.7583 50.2723 60.354 50.2626C59.9369 50.252 59.5951 49.8949 59.6029 49.4769Z" fill="url(#paint4_linear_103_16)"/>
<defs>
<linearGradient id="paint0_linear_103_16" x1="4.58447" y1="85.4292" x2="85.7994" y2="85.4292" gradientUnits="userSpaceOnUse">
<stop stop-color="#1723FF"/>
<stop offset="1" stop-color="#30E35E"/>
</linearGradient>
<linearGradient id="paint1_linear_103_16" x1="62.8594" y1="17.2971" x2="74.7607" y2="17.2971" gradientUnits="userSpaceOnUse">
<stop stop-color="#1723FF"/>
<stop offset="1" stop-color="#30E35E"/>
</linearGradient>
<linearGradient id="paint2_linear_103_16" x1="25" y1="63.0008" x2="65" y2="63.0008" gradientUnits="userSpaceOnUse">
<stop stop-color="#1723FF"/>
<stop offset="1" stop-color="#30E35E"/>
</linearGradient>
<linearGradient id="paint3_linear_103_16" x1="25" y1="63.0008" x2="65" y2="63.0008" gradientUnits="userSpaceOnUse">
<stop stop-color="#1723FF"/>
<stop offset="1" stop-color="#30E35E"/>
</linearGradient>
<linearGradient id="paint4_linear_103_16" x1="25" y1="63.0008" x2="65" y2="63.0008" gradientUnits="userSpaceOnUse">
<stop stop-color="#1723FF"/>
<stop offset="1" stop-color="#30E35E"/>
</linearGradient>
</defs>
</svg>

<svg xmlns="http://www.w3.org/2000/svg" width="91" height="91" fill="none"><circle cx="45.411" cy="45.411" r="45.411" fill="#fff"/><path stroke="url(#a)" stroke-miterlimit="10" stroke-width="2" d="M73.172 15.39C80.951 22.789 85.8 33.238 85.8 44.82c0 22.427-18.18 40.607-40.607 40.607S4.584 67.248 4.584 44.82c0-13.899 6.982-26.166 17.633-33.487"/><path stroke="url(#b)" stroke-miterlimit="10" stroke-width="2" d="M68.81 17.297a5.95 5.95 0 1 0 0-11.902 5.95 5.95 0 0 0 0 11.902Z"/><path fill="url(#c)" d="M25 55.842c.222-.25.43-.513.666-.748 2.298-2.285 4.6-4.563 6.903-6.843.1-.1.215-.186.374-.322-.526-.511-1.022-.978-1.501-1.46-.857-.859-1.17-1.875-.803-3.044.28-.89.883-1.5 1.76-1.84.107-.042.215-.08.322-.12-.7-1.88.302-3.661 2.175-4.131-.453-2.038.75-3.39 2.306-3.772-.26-1.133-.086-2.181.804-3.006.874-.81 1.913-.985 3.11-.612-.04-.21-.088-.378-.1-.546a23.329 23.329 0 0 1-.064-1.428c-.003-.67.294-.961.982-.965 1.445-.008 2.89-.005 4.335-.001.638.002 1.276-.003 1.913.027 1.288.061 2.392.56 3.315 1.448.16.154.275.236.53.133 1.095-.438 2.13-.285 3.029.472.887.748 1.196 1.718.967 2.853-.016.076-.025.152-.042.26.84.204 1.528.626 1.986 1.371.461.75.508 1.554.3 2.418.928.218 1.644.703 2.088 1.545.438.831.407 1.68.121 2.44.51.353 1.043.605 1.421 1.002 1.113 1.169 1.09 2.865-.078 4.038-2.654 2.661-5.311 5.32-8.034 7.91-1.929 1.836-4.31 2.802-6.97 3.055-.405.038-.629.245-.941.608.644.2 1.228.438 1.835.556.517.1 1.061.081 1.592.08.336-.002.603.093.838.328 1.35 1.344 2.708 2.682 4.057 4.027.413.41.446.859.108 1.195-.33.327-.804.294-1.208-.105-1.238-1.22-2.465-2.447-3.71-3.659a.776.776 0 0 0-.499-.208c-1.387.022-2.683-.296-3.873-1.002-.23-.136-.34-.053-.491.097-1.56 1.556-3.123 3.109-4.688 4.659-.128.127-.262.26-.417.343-.317.17-.639.134-.897-.118-.255-.25-.324-.563-.145-.885.086-.155.217-.29.345-.416 2.184-2.177 4.376-4.348 6.555-6.532.304-.305.64-.456 1.063-.482 2.732-.171 5.034-1.277 6.96-3.18 2.424-2.397 4.85-4.791 7.254-7.207.258-.258.463-.63.547-.983.133-.558-.188-1.083-.69-1.349a1.345 1.345 0 0 0-1.53.162c-.343.298-.65.634-.98.943-.336.316-.666.377-.993.202-.494-.265-.548-.849-.101-1.306.608-.619 1.231-1.224 1.849-1.834.341-.338.533-.735.459-1.22-.083-.541-.391-.924-.914-1.108-.545-.192-1.034-.054-1.44.334-.607.583-1.197 1.185-1.799 1.774-.12.117-.245.235-.389.32a.742.742 0 0 1-.925-.145c-.239-.269-.289-.578-.102-.892.084-.142.205-.265.323-.384.845-.842 1.695-1.678 2.538-2.521.404-.402.519-.89.344-1.425-.166-.51-.544-.811-1.071-.907-.502-.091-.918.095-1.27.444l-2.516 2.489c-.1.1-.206.2-.324.277a.769.769 0 0 1-.965-.09.751.751 0 0 1-.093-.957c.086-.127.198-.24.308-.349 1.067-1.06 2.133-2.119 3.203-3.175.418-.41.63-.881.452-1.467a1.367 1.367 0 0 0-2.199-.659c-.15.123-.284.266-.422.402-1.51 1.496-3.018 2.992-4.531 4.486-.1.1-.226.175-.353.271.74 1.036.924 2.088.376 3.185-.547 1.095-1.495 1.6-2.701 1.644-.121 1.835-1.34 2.966-2.993 3.041-.171.522-.271 1.063-.518 1.527-.458.862-1.225 1.345-2.214 1.448-.252.026-.453.025-.477.392-.13 1.968-2.204 3.219-4.038 2.438-.272-.115-.404-.065-.59.12-2.425 2.413-4.858 4.82-7.288 7.228-.244.242-.512.51-.876.378-.245-.09-.434-.33-.648-.501-.002-.156-.002-.311-.002-.466Zm19.641-17.08.055-.094c.557.007 1.049-.3 1.276-.794.243-.53.144-1.104-.314-1.561a711.716 711.716 0 0 0-4.636-4.59c-.58-.568-1.41-.566-1.96-.034-.551.535-.558 1.388.024 1.972a356.57 356.57 0 0 0 4.612 4.56c.252.244.626.364.943.542Zm1.253-4.538 4.604-4.562c-.74-.737-1.677-1.11-2.77-1.11-1.615-.002-3.23-.002-4.844 0-.114 0-.23.014-.339.02-.129 1.183.75 2.157 1.963 2.186.716.016 1.433-.01 2.148.004.43.009.728.296.767.683.038.387-.18.703-.57.809a1.515 1.515 0 0 1-.386.049c-.866.004-1.732.002-2.507.002l1.934 1.919Zm-7.947.855c-.788.03-1.222.287-1.47.819-.25.533-.142 1.098.32 1.56a506.106 506.106 0 0 0 3.839 3.803c.59.578 1.447.586 1.994.046.557-.549.554-1.379-.038-1.973a244.103 244.103 0 0 0-3.846-3.796c-.255-.242-.628-.363-.799-.459Zm-3.883 5.022c-.01.556.18.894.477 1.188 1.003.993 1.997 1.994 3.014 2.973.196.19.46.35.722.424.612.173 1.221-.114 1.525-.654.306-.546.218-1.174-.27-1.664-1.013-1.02-2.039-2.026-3.06-3.036a1.64 1.64 0 0 0-.271-.22c-.453-.288-.927-.321-1.404-.072-.477.248-.712.658-.733 1.061Zm2.854 6.132c-.063-.138-.126-.47-.324-.679a46.397 46.397 0 0 0-2.313-2.296c-.51-.47-1.312-.402-1.81.073-.5.476-.607 1.27-.135 1.786a39.16 39.16 0 0 0 2.396 2.375c.404.37.933.378 1.427.126.491-.25.74-.668.759-1.385Z"/><path fill="url(#d)" d="M62.26 50.546c.274.153.492.225.642.366a64.372 64.372 0 0 1 1.803 1.764c.374.38.387.809.071 1.135-.327.339-.774.331-1.174-.05-.6-.57-1.184-1.156-1.773-1.737-.261-.259-.397-.587-.205-.907.134-.226.406-.372.635-.57Z"/><path fill="url(#e)" d="M59.603 49.477a.778.778 0 0 1 .781-.753c.412.009.768.377.76.783-.01.406-.386.765-.79.756a.78.78 0 0 1-.751-.786Z"/><defs><linearGradient id="a" x1="4.584" x2="85.799" y1="85.429" y2="85.429" gradientUnits="userSpaceOnUse"><stop stop-color="#1723FF"/><stop offset="1" stop-color="#30E35E"/></linearGradient><linearGradient id="b" x1="62.859" x2="74.761" y1="17.297" y2="17.297" gradientUnits="userSpaceOnUse"><stop stop-color="#1723FF"/><stop offset="1" stop-color="#30E35E"/></linearGradient><linearGradient id="c" x1="25" x2="65" y1="63.001" y2="63.001" gradientUnits="userSpaceOnUse"><stop stop-color="#1723FF"/><stop offset="1" stop-color="#30E35E"/></linearGradient><linearGradient id="d" x1="25" x2="65" y1="63.001" y2="63.001" gradientUnits="userSpaceOnUse"><stop stop-color="#1723FF"/><stop offset="1" stop-color="#30E35E"/></linearGradient><linearGradient id="e" x1="25" x2="65" y1="63.001" y2="63.001" gradientUnits="userSpaceOnUse"><stop stop-color="#1723FF"/><stop offset="1" stop-color="#30E35E"/></linearGradient></defs></svg>
